src/assets/flags/na.svg

<?xml version="1.0" encoding="UTF-8"?>
<svg xmlns="http://www.w3.org/2000/svg" xmlns:xlink="http://www.w3.org/1999/xlink" width="25px" height="px" viewBox="0 0 25 19" version="1.1">
<g id="surface1">
<rect x="0" y="0" width="25" height="19" style="fill:rgb(100%,100%,100%);fill-opacity:1;stroke:none;"/>
<path style=" stroke:none;fill-rule:evenodd;fill:rgb(21.176471%,38.431373%,63.529414%);fill-opacity:1;" d="M -1.03125 0.0078125 L -1 13.6875 L 20.019531 0 Z M -1.03125 0.0078125 "/>
<path style=" stroke:none;fill-rule:evenodd;fill:rgb(21.960784%,63.137257%,0%);fill-opacity:1;" d="M 26.03125 18.984375 L 25.976562 4.761719 L 4.777344 18.992188 L 26.027344 18.984375 Z M 26.03125 18.984375 "/>
<path style=" stroke:none;fill-rule:evenodd;fill:rgb(78.039217%,0%,0%);fill-opacity:1;" d="M -1.015625 14.71875 L -1 19 L 3.589844 18.996094 L 25.992188 3.777344 L 25.964844 0.0507812 L 21.433594 0.0117188 L -1.015625 14.714844 Z M -1.015625 14.71875 "/>
<path style=" stroke:none;fill-rule:evenodd;fill:rgb(100%,90.588236%,0%);fill-opacity:1;" d="M 8.578125 6.808594 L 7.726562 6.285156 L 7.234375 7.160156 L 6.757812 6.28125 L 5.898438 6.792969 L 5.921875 5.785156 L 4.929688 5.796875 L 5.445312 4.933594 L 4.582031 4.4375 L 5.449219 3.949219 L 4.949219 3.078125 L 5.941406 3.101562 L 5.9375 2.09375 L 6.785156 2.617188 L 7.277344 1.742188 L 7.753906 2.621094 L 8.613281 2.109375 L 8.589844 3.113281 L 9.582031 3.105469 L 9.066406 3.96875 L 9.929688 4.464844 L 9.0625 4.953125 L 9.5625 5.824219 L 8.570312 5.800781 Z M 8.578125 6.808594 "/>
<path style=" stroke:none;fill-rule:evenodd;fill:rgb(21.176471%,38.431373%,63.529414%);fill-opacity:1;" d="M 9.078125 4.449219 C 9.078125 5.460938 8.261719 6.28125 7.257812 6.28125 C 6.253906 6.28125 5.4375 5.460938 5.4375 4.449219 C 5.4375 3.4375 6.25 2.621094 7.257812 2.621094 C 8.265625 2.621094 9.078125 3.441406 9.078125 4.449219 "/>
<path style=" stroke:none;fill-rule:evenodd;fill:rgb(100%,90.588236%,0%);fill-opacity:1;" d="M 8.683594 4.449219 C 8.683594 5.246094 8.046875 5.894531 7.257812 5.894531 C 6.46875 5.894531 5.832031 5.246094 5.832031 4.449219 C 5.832031 3.652344 6.46875 3.003906 7.257812 3.003906 C 8.046875 3.003906 8.683594 3.652344 8.683594 4.449219 "/>
</g>
</svg>

<svg xmlns="http://www.w3.org/2000/svg" width="25" height="px" viewBox="0 0 25 19"><path d="M0 0h25v19H0z" style="fill:#fff;fill-opacity:1;stroke:none"/><path d="M-1.031.008-1 13.688 20.02 0Zm0 0" style="stroke:none;fill-rule:evenodd;fill:#3662a2;fill-opacity:1"/><path d="m26.031 18.984-.054-14.222-21.2 14.23 21.25-.008Zm0 0" style="stroke:none;fill-rule:evenodd;fill:#38a100;fill-opacity:1"/><path d="M-1.016 14.719-1 19l4.59-.004L25.992 3.777 25.965.051 21.434.01l-22.45 14.704Zm0 0" style="stroke:none;fill-rule:evenodd;fill:#c70000;fill-opacity:1"/><path d="m8.578 6.809-.851-.524-.493.875-.476-.879-.86.512.024-1.008-.992.012.515-.863-.863-.497.867-.488-.5-.87.992.023-.003-1.008.847.523.492-.875.477.88.86-.513-.024 1.004.992-.008-.516.864.864.496-.867.488.5.871-.993-.023Zm0 0" style="stroke:none;fill-rule:evenodd;fill:#ffe700;fill-opacity:1"/><path d="M9.078 4.45a1.827 1.827 0 0 1-1.82 1.831c-1.004 0-1.82-.82-1.82-1.832 0-1.011.812-1.828 1.82-1.828s1.82.82 1.82 1.828" style="stroke:none;fill-rule:evenodd;fill:#3662a2;fill-opacity:1"/><path d="M8.684 4.45c0 .796-.637 1.445-1.426 1.445-.79 0-1.426-.649-1.426-1.446s.637-1.445 1.426-1.445 1.426.648 1.426 1.445" style="stroke:none;fill-rule:evenodd;fill:#ffe700;fill-opacity:1"/></svg>
